packages/elvis-assets-icons/icons/svg/src/chat.svg

<svg width="24" height="24" viewBox="0 0 24 24" fill="none" xmlns="http://www.w3.org/2000/svg">
<g clip-path="url(#clip0)">
<path fill-rule="evenodd" clip-rule="evenodd" d="M22.5 19.7158V11.7819C22.5 6.08829 17.799 1.47273 12 1.47273C6.21877 1.47273 1.5 6.17884 1.5 11.89C1.5 17.7216 6.31826 22.5274 12.2222 22.5274H19.6364C20.2899 22.5274 20.7119 22.5267 21.0355 22.507C21.3473 22.488 21.4672 22.4554 21.5242 22.4345C21.9318 22.2853 22.2534 21.9696 22.4054 21.5693C22.4267 21.5134 22.4599 21.3956 22.4792 21.0895C22.4993 20.7718 22.5 20.3575 22.5 19.7158ZM12 0C5.37258 0 0 5.38301 0 11.89C0 18.5174 5.47208 24.0001 12.2222 24.0001H19.6364C20.9063 24.0001 21.5413 24.0001 22.0484 23.8144C22.8637 23.5159 23.5068 22.8845 23.8109 22.084C24 21.5861 24 20.9627 24 19.7158V11.7819C24 5.27492 18.6274 0 12 0Z" fill="black"/>
<path fill-rule="evenodd" clip-rule="evenodd" d="M7.55063 10.5821C8.38465 10.5821 9.06076 11.2415 9.06076 12.0548C9.06076 12.8682 8.38465 13.5276 7.55063 13.5276C6.71661 13.5276 6.04051 12.8682 6.04051 12.0548C6.04051 11.2415 6.71661 10.5821 7.55063 10.5821Z" fill="black"/>
<path fill-rule="evenodd" clip-rule="evenodd" d="M12.0811 10.5821C12.9151 10.5821 13.5912 11.2415 13.5912 12.0549C13.5912 12.8682 12.9151 13.5276 12.0811 13.5276C11.247 13.5276 10.5709 12.8682 10.5709 12.0549C10.5709 11.2415 11.247 10.5821 12.0811 10.5821Z" fill="black"/>
<path fill-rule="evenodd" clip-rule="evenodd" d="M16.6114 10.5821C17.4455 10.5821 18.1216 11.2415 18.1216 12.0549C18.1216 12.8682 17.4455 13.5276 16.6114 13.5276C15.7774 13.5276 15.1013 12.8682 15.1013 12.0549C15.1013 11.2415 15.7774 10.5821 16.6114 10.5821Z" fill="black"/>
</g>
<defs>
<clipPath id="clip0">
<path d="M0 0H24V24H0V0Z" fill="white"/>
</clipPath>
</defs>
</svg>

<svg width="24" height="24" fill="none" xmlns="http://www.w3.org/2000/svg"><g clip-path="url(#clip0)" fill-rule="evenodd" clip-rule="evenodd" fill="#000"><path d="M22.5 19.716v-7.934c0-5.694-4.701-10.31-10.5-10.31-5.781 0-10.5 4.707-10.5 10.418 0 5.832 4.818 10.637 10.722 10.637h7.414c.654 0 1.076 0 1.4-.02.311-.019.431-.052.488-.073.408-.149.73-.464.881-.865.022-.056.055-.173.074-.48.02-.317.021-.731.021-1.373zM12 0C5.373 0 0 5.383 0 11.89 0 18.517 5.472 24 12.222 24h7.414c1.27 0 1.905 0 2.412-.186a2.973 2.973 0 001.763-1.73c.189-.498.189-1.121.189-2.368v-7.934C24 5.275 18.627 0 12 0z"/><path d="M7.55 10.582c.835 0 1.51.66 1.51 1.473 0 .813-.675 1.473-1.51 1.473-.833 0-1.51-.66-1.51-1.473 0-.813.677-1.473 1.51-1.473zM12.081 10.582c.834 0 1.51.66 1.51 1.473 0 .813-.676 1.473-1.51 1.473s-1.51-.66-1.51-1.473c0-.813.676-1.473 1.51-1.473zM16.611 10.582c.834 0 1.51.66 1.51 1.473 0 .813-.675 1.473-1.51 1.473-.834 0-1.51-.66-1.51-1.473 0-.813.676-1.473 1.51-1.473z"/></g><defs><clipPath id="clip0"><path d="M0 0h24v24H0V0z" fill="#fff"/></clipPath></defs></svg>
